!! 00010] TT[TB
!! Eigene Aufnahme
!!!OTL: Nianjie shiwu sui Fifteen years old
!!!ARE: Neimeng
!! Ethnic Group: Menggu
!! MM, S. 680
!!!SCT: C0555
!!!YEM: Copyright 1995, estate of Helmut Schaffrath.
**kern
*ICvox
*Ivox
*M2/4
*k[]
*C:
{8a
8cc
8cc
8g
=1
4dd
4cc
=2
8a
[4.g
=3
2g]}
=4
{8a
8cc
8cc
8g
=5
8a
8cc
8ee
8gg
=6
8gg
[4.cc
=7
2cc]}
=8
{8cc
4a
8gg
=9
8g
8cc
4a
=10
8g
8e
8d
8e
=11
4g
4a}
=12
{8ee
4gg
8cc
=13
8a
8g
4e
=14
8d
[4.c
=15
2c]}
==
!!!AGN: NN
!! Saenger: Chao Lun Batou, der das Buch nur zum Nachschlagen
!!    benutzte und ansonsten auswendig sang. Da er aus dem Osten der
!!    Neimeng kommt, kennt er nicht so viele Lieder des Westens.
!!    Alle Lieder wurden mit erkaelteter, halber Stimme in meinem
!!    Zimmer gesungen. FOTO VORHANDEN (DIAS)  31.3.87  VARIANTE
!!!ONB: ESAC (Essen Associative Code) Database: CHINA
!!!AMT: simple duple
!!!AIN: vox
!!!EED: Helmut Schaffrath
!!!EEV: 1.0
*-
!!!ONB: Tied note syntax fixed by Craig Sapp, 2004/05/03/
